X: 558
T: SWEET KATHLEEN MACHREE
T: Chaitilin shileas mo chroidhe
B: O'Neill's 558
M: 6/8
L: 1/8
Z: 1999 by John Chambers <jc@trillian.mit.edu>
N: "With spirit"
N: "Collected by F.O'Neill"
K:C
G \
| c>dc cec | cAc cGc | cEc cde | f>dd Hd2 f |
| e>dc cec | cAc cGc | cEc ceg | fdB Hc2 f |
| ece egf | ece ege | f>dd d2e | f>dd Hd2 f |
| ege fdf | edc cAG | GEG c2d | ece Hg2 f \
| e>cc c2d | e>cc c2 |]


